src/xmb/monochrome/Bally - Astrocade.svg

<svg xmlns="http://www.w3.org/2000/svg" xml:space="preserve" width="64" height="64"><defs><clipPath id="a" clipPathUnits="userSpaceOnUse"><path d="M0 64h64V0H0z"/></clipPath></defs><g clip-path="url(#a)" transform="matrix(1 0 0 -1 0 64)"><path d="M0 0h1.581c-.541 3.813-2.645 6.48-3.99 7.834a1.004 1.004 0 0 1-.339-1.298C-2.043 5.162-1.53 3.228-.971.778A1 1 0 0 1 0 0" style="fill:#fff;fill-opacity:1;fill-rule:nonzero;stroke:none" transform="translate(22.86 31)"/><path d="M0 0c-.553-.392-1.481-1.245-1.481-2.562 0-1.605-10.363-.459-13.332-.098a.93.93 0 0 0-.822.844c-.061.714-.225 1.724-.665 1.996a.45.45 0 0 0-.192.443c.393 3.077 2.958 24.194-.112 28.08a.467.467 0 0 0 .309.761c3.439.384 13.266.644 14.814-8.603 0 0 .858-16.227 1.754-20.142A.69.69 0 0 0 0 0m-17.709 35.105a2.5 2.5 0 1 0 5 0 2.5 2.5 0 0 0-5 0M2.265-1.829C1.668.639-.405 22.187-.493 22.75c-.529 3.393-2.547 15.811-4.132 18.412a.93.93 0 0 1-.794.443h-6.945a1 1 0 0 1-.263-.038c-.992-.295-7.142-2.397-9.051-9.685a.95.95 0 0 1 .299-.96c1.455-1.242 5.938-5.689 5.154-12.786-.856-7.751-2.497-17.872-2.762-19.491A.92.92 0 0 1-18.861-2c.505-.786 2.572-2.395 11.035-2.395 0 0 6.415 0 9.581 1.497a.94.94 0 0 1 .51 1.069" style="fill:#fff;fill-opacity:1;fill-rule:nonzero;stroke:none" transform="translate(41.709 9.395)"/><path d="M0 0v5c0 .552-1.343 1-3 1s-3-.448-3-1V0l-1-1v-.05c.114.021.228.05.345.05H.29c.248 0 .485-.062.71-.153V-1z" style="fill:#fff;fill-opacity:1;fill-rule:nonzero;stroke:none" transform="translate(36 53)"/></g></svg>

<?xml version="1.0" encoding="UTF-8" standalone="no"?>
<!-- Created with Inkscape (http://www.inkscape.org/) -->

<svg
   xmlns:dc="http://purl.org/dc/elements/1.1/"
   xmlns:cc="http://creativecommons.org/ns#"
   xmlns:rdf="http://www.w3.org/1999/02/22-rdf-syntax-ns#"
   xmlns:svg="http://www.w3.org/2000/svg"
   xmlns="http://www.w3.org/2000/svg"
   xmlns:sodipodi="http://sodipodi.sourceforge.net/DTD/sodipodi-0.dtd"
   xmlns:inkscape="http://www.inkscape.org/namespaces/inkscape"
   id="svg3074"
   version="1.1"
   inkscape:version="0.48.5 r10040"
   width="64"
   height="64"
   xml:space="preserve"
   sodipodi:docname="Bally - Astrocade.svg"
   inkscape:export-filename="/Users/margetts/Desktop/Icon Workshop/Monochrome Plus June/png/Bally - Astrocade.png"
   inkscape:export-xdpi="360"
   inkscape:export-ydpi="360"><metadata
     id="metadata3080"><rdf:RDF><cc:Work
         rdf:about=""><dc:format>image/svg+xml</dc:format><dc:type
           rdf:resource="http://purl.org/dc/dcmitype/StillImage" /><dc:title></dc:title></cc:Work></rdf:RDF></metadata><defs
     id="defs3078"><clipPath
       clipPathUnits="userSpaceOnUse"
       id="clipPath3088"><path
         d="M 0,64 64,64 64,0 0,0 0,64 z"
         id="path3090"
         inkscape:connector-curvature="0" /></clipPath></defs><sodipodi:namedview
     pagecolor="#808080"
     bordercolor="#666666"
     borderopacity="1"
     objecttolerance="10"
     gridtolerance="10"
     guidetolerance="10"
     inkscape:pageopacity="0"
     inkscape:pageshadow="2"
     inkscape:window-width="1676"
     inkscape:window-height="1005"
     id="namedview3076"
     showgrid="false"
     inkscape:zoom="10.4125"
     inkscape:cx="24.105642"
     inkscape:cy="40"
     inkscape:window-x="4"
     inkscape:window-y="1"
     inkscape:window-maximized="1"
     inkscape:current-layer="g3082" /><g
     id="g3082"
     inkscape:groupmode="layer"
     inkscape:label="Bally - Astrocade"
     transform="matrix(1.25,0,0,-1.25,0,64)"><g
       id="g3084"
       transform="matrix(0.79999259,0,0,0.79999259,1.6078178e-4,4.3711815e-4)"><g
         id="g3086"
         clip-path="url(#clipPath3088)"><g
           id="g3092"
           transform="translate(22.8608,31)"><path
             d="M 0,0 1.581,0 C 1.04,3.813 -1.064,6.48 -2.409,7.834 -2.812,7.567 -2.996,7.021 -2.748,6.536 -2.043,5.162 -1.53,3.228 -0.971,0.778 -0.868,0.324 -0.464,0 0,0"
             style="fill:#ffffff;fill-opacity:1;fill-rule:nonzero;stroke:none"
             id="path3094"
             inkscape:connector-curvature="0" /></g><g
           id="g3096"
           transform="translate(41.709,9.3945)"><path
             d="m 0,0 c -0.553,-0.392 -1.481,-1.245 -1.481,-2.562 0,-1.605 -10.363,-0.459 -13.332,-0.098 -0.44,0.053 -0.785,0.404 -0.822,0.844 -0.061,0.714 -0.225,1.724 -0.665,1.996 -0.148,0.091 -0.214,0.271 -0.192,0.443 0.393,3.077 2.958,24.194 -0.112,28.08 -0.23,0.293 -0.062,0.72 0.309,0.761 3.439,0.384 13.266,0.644 14.814,-8.603 0,0 0.858,-16.227 1.754,-20.142 C 0.336,0.446 0.229,0.162 0,0 m -17.709,35.105 c 0,1.381 1.119,2.5 2.5,2.5 1.381,0 2.5,-1.119 2.5,-2.5 0,-1.38 -1.119,-2.5 -2.5,-2.5 -1.381,0 -2.5,1.12 -2.5,2.5 M 2.265,-1.829 c -0.597,2.468 -2.67,24.016 -2.758,24.579 -0.529,3.393 -2.547,15.811 -4.132,18.412 -0.169,0.277 -0.471,0.443 -0.794,0.443 l -6.945,0 c -0.09,0 -0.178,-0.012 -0.263,-0.038 -0.992,-0.295 -7.142,-2.397 -9.051,-9.685 -0.092,-0.352 0.024,-0.725 0.299,-0.96 1.455,-1.242 5.938,-5.689 5.154,-12.786 -0.856,-7.751 -2.497,-17.872 -2.762,-19.491 -0.037,-0.224 0.004,-0.455 0.126,-0.645 0.505,-0.786 2.572,-2.395 11.035,-2.395 0,0 6.415,0 9.581,1.497 0.402,0.189 0.614,0.635 0.51,1.069"
             style="fill:#ffffff;fill-opacity:1;fill-rule:nonzero;stroke:none"
             id="path3098"
             inkscape:connector-curvature="0" /></g><g
           id="g3100"
           transform="translate(36,53)"><path
             d="M 0,0 0,5 C 0,5.552 -1.343,6 -3,6 -4.657,6 -6,5.552 -6,5 l 0,-5 -1,-1 0,-0.05 C -6.886,-1.029 -6.772,-1 -6.655,-1 L 0.29,-1 C 0.538,-1 0.775,-1.062 1,-1.153 L 1,-1 0,0 z"
             style="fill:#ffffff;fill-opacity:1;fill-rule:nonzero;stroke:none"
             id="path3102"
             inkscape:connector-curvature="0" /></g></g></g></g></svg>
